common/src/main/resources/icons/plugins/bigdata/toolWindowHadoop.svg

<!--
  - The MIT License (MIT)
  -
  - Copyright (c) 2015-2022 Elior "Mallowigi" Boukhobza
  -
  - Permission is hereby granted, free of charge, to any person obtaining a copy
  - of this software and associated documentation files (the "Software"), to deal
  - in the Software without restriction, including without limitation the rights
  - to use, copy, modify, merge, publish, distribute, sublicense, and/or sell
  - copies of the Software, and to permit persons to whom the Software is
  - furnished to do so, subject to the following conditions:
  -
  - The above copyright notice and this permission notice shall be included in all
  - copies or substantial portions of the Software.
  -
  - THE SOFTWARE IS PROVIDED "AS IS", WITHOUT WARRANTY OF ANY KIND, EXPRESS OR
  - IMPLIED, INCLUDING BUT NOT LIMITED TO THE WARRANTIES OF MERCHANTABILITY,
  - FITNESS FOR A PARTICULAR PURPOSE AND NONINFRINGEMENT. IN NO EVENT SHALL THE
  - AUTHORS OR COPYRIGHT HOLDERS BE LIABLE FOR ANY CLAIM, DAMAGES OR OTHER
  - LIABILITY, WHETHER IN AN ACTION OF CONTRACT, TORT OR OTHERWISE, ARISING FROM,
  - OUT OF OR IN CONNECTION WITH THE SOFTWARE OR THE USE OR OTHER DEALINGS IN THE
  - SOFTWARE.
  -
  -
  -->

<svg xmlns="http://www.w3.org/2000/svg" width="13px" height="13px" viewBox="0 0 16 16">
  <g fill="none" fill-rule="evenodd">
    <!--    <path fill="#000"-->
    <!--          d="M7.25538308,13.0562347 C7.11842447,13.2801384 7.1015136,13.4186976 6.88210374,13.5487755 C6.22894309,13.935879 5.88229189,13.4869377 5.49564995,12.8343274 C5.31142073,12.5233665 4.90861208,11.813407 5.33606443,11.5727298 C5.516163,11.4713323 5.65266864,11.3953315 5.78882916,11.3084751 C5.3404,11.3694151 4.90029685,11.3701475 4.4426681,11.2947373 C4.45076762,11.3552166 4.45783179,11.4127666 4.46354784,11.4655443 C4.49329285,11.7394025 4.48927547,11.8543504 4.40457216,12.0398948 C4.31986885,12.2254393 4.23516554,12.3182115 4.15046223,12.4109837 C4.17222634,12.6486488 4.21168863,12.9506254 4.15046223,13.1995477 C4.01435564,13.7527332 2.98226162,13.4142089 2.59794924,13.3003612 C2.13552116,13.1634085 1.4747463,13.0358702 1.74588099,12.3847128 C1.80941537,12.2321559 1.85930674,12.0761262 1.8968493,11.9273138 C1.49250919,12.1233284 0.930600347,11.7075327 0.66298157,11.4136761 C0.408434202,11.134148 0.270159827,10.8095556 0.22198327,10.4945785 C0.180957163,10.2265083 0.218521288,10.2278077 0.393184224,10.0382899 C0.552974657,9.86504953 0.712711165,9.69159655 0.872458458,9.51845069 C0.936963492,9.32612153 1.00158716,9.13395774 1.06605984,8.94175851 C1.04093081,8.79817904 1.0222512,8.65496575 1.01112109,8.5131345 C0.964713275,7.92177135 0.980308372,7.5006482 1.05744263,7.11350928 C0.77609456,7.23374749 0.453256626,7.17742606 0.30966525,6.85038852 C0.255060839,6.72606323 0.222533305,6.59942271 0.181291497,6.41556302 C-0.446319509,5.75325471 0.729805376,4.88498575 1.07290831,4.81968692 C1.03368329,4.94176786 0.990705104,5.0534421 0.952882139,5.16417134 C1.18556833,5.29610381 1.15704203,5.67202098 1.10763598,5.91404482 C1.02393366,5.79835437 0.977676834,5.64707323 0.854566157,5.64057642 C0.836533652,5.91428107 0.839650514,6.21673705 0.644485309,6.37743266 C0.702260508,6.54658593 0.699229926,6.54672768 0.86343142,6.47757801 C1.09663529,6.37923995 1.27223652,6.16017937 1.44888389,5.94638712 C1.63913114,5.54050194 1.88300137,5.17944475 2.2184901,4.85367113 C3.04291641,4.05311073 3.82218597,3.79119484 5.0769658,3.57218151 C5.24398217,3.38128165 5.41658518,3.19709121 5.60184976,3.01799191 C5.85284887,2.77540107 6.01582087,2.72503309 6.25320932,2.71147248 C6.64603106,2.13598516 6.95510734,1.73521474 7.59555249,1.4399525 C8.93798194,0.821078315 9.86329107,0.791240244 10.9407656,1.76428501 C11.2968321,2.08579436 11.6004943,2.42462065 11.991817,2.69302154 C12.189851,2.82884028 12.3313716,2.9264696 12.4815095,3.12229522 C12.6703224,3.36872509 12.8245262,3.61516676 12.9318584,3.93236459 C13.0705318,3.86985348 13.2286829,3.81095695 13.3563772,3.69141567 C13.5212474,3.53712237 13.6261422,3.2788565 13.7788469,3.10932523 C13.98154,2.88435846 14.4439034,3.15593688 14.5462853,3.37056782 C14.8945004,4.10045475 15.0355353,5.02260262 14.992486,5.82415572 C14.9077827,7.40128356 14.4992951,8.16921707 13.7038589,8.63417596 C13.1630131,8.95022799 12.5643823,9.10702458 11.9431668,8.97841139 C11.8584635,9.53504474 11.3502436,10.2772225 10.7573205,10.2772225 C10.1643973,10.2772225 10.1643973,10.1844503 9.91028736,9.99890587 C9.74561604,9.87866716 9.56063594,9.68555079 9.55013237,9.70929833 C9.52826256,9.75874383 9.49670863,9.79842244 9.48677081,9.85974754 C9.59389813,10.0914237 9.53783238,9.90810566 9.62951559,10.1469402 C9.7303984,10.4099664 9.77950247,10.5826043 9.78643722,10.8641052 C9.79251995,11.113996 9.79863504,11.3639578 9.80475013,11.6138369 C9.90651731,11.8118714 9.91541493,11.8600541 9.90059635,12.0866746 C9.86925517,12.5642846 9.62908419,12.6098567 9.22881002,12.6071044 C9.0954536,12.6061713 8.59209648,12.609585 8.46378744,12.5994382 C8.20872239,12.5792509 8.04058438,12.5579177 7.9526867,12.4425344 C7.72086331,12.6476563 7.33101822,13.0107571 7.25538308,13.0562347 Z" />-->
    <path fill="#FFEB3B"
          d="M9.047958,10.4712816 C9.06673706,10.5434836 9.11510531,10.837787 9.11837361,10.9753208 C9.12181681,11.1203858 9.12528186,11.2654897 9.12875238,11.4105548 C9.16788999,11.4918889 9.17400576,11.509233 9.16707019,11.6020131 C9.15287658,11.7915466 9.09961095,11.8040555 8.95925442,11.8011519 C8.89550071,11.7998491 8.64159536,11.7984492 8.57719128,11.7918577 C8.48615984,11.782544 8.39817218,11.7019042 8.37033152,11.6773206 C8.51337155,11.5527624 8.70914476,11.2134594 8.79384807,11.027915 C8.87855138,10.8423705 9.00715345,10.6440867 9.047958,10.4712816 Z M1.74320173,11.0499403 L1.74314313,11.0566288 C1.72875059,11.1226571 1.71208014,11.1870112 1.67715716,11.2386594 C1.51286975,11.4813561 1.09494395,11.1250915 0.973980657,10.9887242 C0.841745036,10.8396349 0.753236381,10.6630636 0.732163938,10.4974915 C0.716841188,10.3766931 0.731709822,10.3737654 0.808030592,10.2883185 C0.910887844,10.1733432 1.01384764,10.0582791 1.11666095,9.94332812 C1.13916898,9.8768874 1.16175758,9.81051946 1.18426562,9.744103 C1.30601263,10.2090425 1.51334584,10.6658862 1.74320173,11.0499403 Z M6.52215493,10.7410837 C6.56450659,10.5091531 6.69156155,10.2772225 6.60685824,10.0916781 C6.5691553,10.2357683 6.35274831,10.462767 6.268045,10.5555392 C6.18334169,10.6483114 6.18334169,10.6483114 6.01393507,10.7410837 C5.45145551,10.8669563 4.96719617,10.8510217 4.40457216,10.7410837 C4.1402774,10.6946975 3.50948622,10.2620662 3.47283574,10.0916781 C3.46172297,10.2825439 3.47283574,10.462767 3.64224236,10.7410837 C3.81164899,11.0194003 3.81164899,11.297717 3.81164899,11.4832615 C3.81164899,11.6688059 3.69877546,11.8246757 3.55753905,12.1326671 C3.56927092,12.326991 3.6046832,12.4120701 3.55753905,12.5965282 C3.47912024,12.9031408 3.17327182,12.7518638 2.96461588,12.6893004 C2.70769109,12.6122828 2.32281576,12.6005936 2.45639601,12.2254393 C2.57397264,11.8952863 2.56836086,11.3886434 2.62580263,10.9266281 C2.15508341,10.1839364 1.77804657,9.32356794 1.69406622,8.42177804 C1.62884447,7.72153359 1.72512555,7.27296537 1.86347284,6.8446502 C2.08268437,6.16602493 2.30310026,5.74055636 2.79520926,5.26752237 C3.4589729,4.62961529 3.77185889,4.5017462 4.7433854,4.33980012 C4.50976958,4.62622882 4.50471754,4.65882265 4.25277647,4.9835963 C3.99772961,5.31243838 3.8461543,5.64453521 3.6842401,6.00416173 C3.46051948,6.50089432 3.46530716,6.68990676 3.76189536,7.12596324 C4.01746845,7.50176178 4.15543397,7.67097452 4.26701568,8.0386362 C4.17485294,8.24670244 4.14135985,8.42250378 4.11036379,8.70662704 C4.42329611,9.08123895 4.65581821,9.33796813 4.95964982,9.41706517 C5.25767226,9.49464785 5.50656944,9.47959466 5.77317276,9.33033982 C6.36536891,8.99871765 7.03999683,8.53225923 7.70800128,8.51455026 C8.01704362,7.6823757 7.8591028,7.02540524 7.71071584,6.22027443 C7.6094008,5.67042624 7.48542397,5.08591759 7.45389135,4.52534457 C7.21131573,4.97171777 7.02215182,5.89853406 7.11507811,6.4735613 C7.2271551,7.16657299 7.19978142,7.40128356 7.11507811,7.77237246 C6.69156155,7.86514468 6.64307129,8.02018944 6.09863838,8.32900581 C5.87982926,8.45318331 5.33630858,8.60732249 5.08219865,8.51455026 C4.82808872,8.42177804 4.95341639,8.14331222 5.08219865,7.86514468 C5.28913144,7.41839727 5.84800773,5.38243595 6.09863838,4.94281959 C5.79171128,5.34861149 4.81553967,6.90058351 4.57397878,7.30851133 C4.48164063,7.02036484 4.40457216,6.8446502 4.23516554,6.65910575 C4.06575892,6.4735613 4.56491176,5.54440686 4.83827354,5.22113627 C5.31060242,4.66248445 5.41269943,4.33333139 5.92923176,3.78316676 C6.20967187,3.48444236 6.35274831,3.41207786 6.69156155,3.22653341 C7.0303748,3.04098896 7.53450102,3.12824546 7.8774079,3.04098896 C7.70800128,2.85544451 7.53859466,2.76267228 7.28448473,2.76267228 C7.53859466,2.29881116 7.70032856,2.26600157 8.21622115,2.02049448 C8.86029196,1.71411285 9.00072008,1.68313191 9.4020675,1.6957917 C9.79222126,1.70809841 10.011383,1.79960648 10.5032105,2.25242505 C10.7617966,2.49050726 11.0033223,2.60364794 11.2655403,2.80905841 C11.1704782,2.81796374 11.3537236,2.90721702 11.2453612,2.95383444 C11.3772389,2.92631604 11.3827991,2.96720877 11.5196503,2.99460286 C11.5580858,3.02189523 11.593355,3.02092909 11.6890569,3.08737508 C11.8692119,3.21245698 11.9873923,3.26741734 12.1125734,3.45846398 C12.2448949,3.66034848 12.3019927,3.9727386 12.2615761,3.96847805 C12.1815167,3.96004736 12.1049139,3.98161003 12.0410954,4.02463367 C12.0385262,4.02594461 12.0359776,4.02722164 12.0333774,4.02860039 C11.9309995,4.08318514 11.7723872,4.14543211 11.6662432,4.1643051 C11.7203522,4.18477156 11.8400956,4.19243376 11.8965778,4.16795538 C11.9041514,4.16465544 11.9118488,4.16215787 11.9197423,4.16007845 C11.8942665,4.20755476 11.8776232,4.26149535 11.8725053,4.31974169 C11.8657262,4.39697404 11.8800583,4.47109855 11.9103837,4.53545884 C11.9202892,4.56083002 11.9335997,4.58363582 11.9482517,4.60004515 C11.8997043,4.61958491 11.8502075,4.64197257 11.7991734,4.66625884 C12.0358538,4.62676117 12.1356471,4.6311531 12.3666834,4.66450291 C12.3819235,4.74426673 12.5109067,4.8175931 12.5251252,4.90357256 C12.496492,4.90607013 12.4679414,4.90844338 12.4393392,4.91090704 L12.4323743,4.91158511 C12.323073,4.81589792 12.2012865,4.83197951 12.0349148,4.8735679 C11.528969,4.99993783 11.6478664,5.31090142 11.415076,5.77941493 C11.6567607,5.45582791 11.6388585,5.1172894 12.0326964,5.01512663 C12.1244773,4.99132632 12.1869544,4.96155898 12.2490704,4.97178656 C12.1372617,5.03338935 12.0405279,5.13548432 12.0021853,5.25404513 C11.8940808,5.58839089 11.9612114,5.870107 11.8424585,6.18238153 C11.9895763,5.90323079 11.9984397,5.63077036 12.129977,5.33707498 C12.177214,5.23155575 12.3525522,5.06267074 12.4601924,5.06007147 C12.4897336,5.0593934 12.5192129,5.05869272 12.548785,5.05799205 C12.5747251,5.24385145 12.5461503,5.53193405 12.53609,5.68499739 C12.5177544,5.96427245 12.4063365,6.26857427 12.3666834,6.4271752 C12.53609,6.4735613 12.7901999,6.28801685 12.9596066,5.82415572 C13.1290132,5.3602946 13.0976656,5.02377382 13.0443099,4.71088902 C12.9711018,4.28155674 13.148754,4.58851148 13.3831231,4.38618624 C13.5553969,4.23741735 13.7333807,3.99780503 13.891343,3.82955289 C14.0480361,3.66271339 14.178741,4.03752038 14.240341,4.20064179 C14.5075841,4.90867276 14.4701398,5.48150655 14.3995628,6.19524462 C14.3203598,6.99614879 14.0382717,7.70275407 13.3933079,8.09707526 C12.571128,8.59967316 11.6690643,8.30571712 10.8522086,8.00430303 C10.6778609,7.93997665 10.4125529,7.83173161 10.2592854,7.72598635 C10.3010228,7.93178106 10.2650812,8.34976362 10.2592854,8.56093638 C10.2491006,8.93202528 10.2958117,9.09709411 10.3995111,9.20010415 C10.5032105,9.30311419 10.5612985,9.30311419 10.6726172,9.30311419 C10.8420238,9.30311419 11.0961337,9.21034196 11.180837,9.02479751 C11.2655403,8.83925306 11.2655403,8.79286694 11.2655403,8.70009471 C11.3275118,8.72101322 11.4539023,8.7754631 11.5196503,8.79286694 C11.5196503,8.79286694 11.4615288,8.90714335 11.424414,9.03967243 C11.328093,9.38378242 11.0114304,9.67420309 10.6726172,9.67420309 C10.3338039,9.67420309 10.1210315,9.43879662 9.90958961,9.23277589 C9.76390603,9.09079902 9.62372209,8.95496999 9.4847557,8.82045191 C9.10355774,8.68872522 8.99353036,8.43033081 8.6397377,8.14346136 C8.55503439,8.70009471 8.6397377,8.88563916 8.97855094,9.16395584 C8.9274549,9.73447391 8.7989595,9.99890587 8.6397377,10.3699948 C8.53757967,10.6080885 8.03023172,11.4795667 7.8774079,11.5760337 C7.76842639,11.6447789 7.24350955,12.2351703 7.11507811,12.3182115 C7.01945875,12.4573405 6.92001893,12.6988507 6.77626486,12.7820726 C6.33817199,13.0357844 6.20879791,12.837835 6.01393507,12.4109837 C5.92923176,12.2254393 5.84452845,12.0398948 6.01393507,11.9471226 C6.18334169,11.8543504 6.36293314,11.5760337 6.43745162,11.4832615 C6.51197011,11.3904892 6.47980328,10.9730142 6.52215493,10.7410837 Z M9.49766392,5.10445137 C9.55338676,5.23188806 9.64354392,5.32931507 9.75033114,5.39025397 C9.67328148,5.5010697 9.60931381,5.6251627 9.56354603,5.76267228 C9.97102727,5.23539895 10.5620008,4.83723416 11.1175828,4.66698419 C10.962271,4.66454608 10.7783831,4.69632514 10.5911257,4.76346382 C10.5842465,4.69546135 10.5672463,4.62750069 10.5388106,4.56241003 C10.4713714,4.4080705 10.3531742,4.29749161 10.2163813,4.24283608 C10.3405516,4.17044501 10.4625012,4.09438981 10.5576614,4 C10.2789323,4.14075576 9.95448655,4.10642713 9.71542459,4.28276541 C9.5047601,4.43809412 9.2140339,4.9301611 9,5.13880787 C9.15501823,5.07317386 9.30440803,4.95958564 9.44181345,4.83976979 C9.44246436,4.92882362 9.46033243,5.01899202 9.49766392,5.10445137 L9.49766392,5.10445137 Z" />
  </g>
</svg>

<svg xmlns="http://www.w3.org/2000/svg" width="13" height="13" viewBox="0 0 16 16"><path fill="#FFEB3B" fill-rule="evenodd" d="M9.048 10.471c.019.072.067.367.07.504l.01.436c.04.08.046.098.04.191-.015.19-.068.202-.209.2-.063-.002-.317-.004-.382-.01-.09-.01-.179-.09-.207-.115.143-.124.34-.464.424-.65.085-.185.213-.383.254-.556m-7.305.579v.007a.5.5 0 0 1-.066.182c-.164.242-.582-.114-.703-.25a.95.95 0 0 1-.242-.492c-.015-.12 0-.123.076-.209l.309-.345.067-.199c.122.465.33.922.56 1.306m4.78-.309c.042-.232.169-.464.084-.65-.038.145-.254.372-.339.465-.085.092-.085.092-.254.185-.563.126-1.047.11-1.61 0-.264-.046-.895-.479-.931-.65-.011.192 0 .372.17.65.169.278.169.557.169.742 0 .186-.113.342-.254.65.011.194.047.28 0 .464-.079.306-.385.155-.593.092-.257-.077-.642-.088-.509-.464.118-.33.112-.836.17-1.298-.47-.743-.848-1.603-.932-2.505-.065-.7.031-1.149.17-1.577.219-.679.44-1.104.931-1.577.664-.638.977-.766 1.948-.928-.233.286-.238.319-.49.644-.255.328-.407.66-.569 1.02-.223.497-.219.686.078 1.122.255.376.393.545.505.913-.092.208-.126.384-.157.668.313.374.546.631.85.71.298.078.547.063.813-.087.592-.331 1.267-.798 1.935-.815.309-.833.151-1.49.003-2.295-.102-.55-.226-1.134-.257-1.695-.243.447-.432 1.374-.339 1.949.112.693.085.927 0 1.298-.423.093-.472.248-1.016.557-.22.124-.763.278-1.017.186s-.129-.372 0-.65c.207-.447.766-2.483 1.017-2.922-.307.406-1.283 1.958-1.525 2.366-.092-.289-.17-.464-.339-.65-.17-.185.33-1.115.603-1.438.473-.559.575-.888 1.091-1.438.28-.299.424-.37.763-.556.338-.186.843-.099 1.185-.186-.169-.186-.338-.278-.593-.278.255-.464.416-.497.932-.743.644-.306.785-.337 1.186-.324.39.012.61.104 1.101.556.259.239.5.352.763.557-.096.009.088.098-.02.145.131-.028.137.013.274.04.038.028.073.027.17.093.18.125.297.18.423.371.132.202.189.515.149.51a.33.33 0 0 0-.22.057q-.005 0-.009.004a1.5 1.5 0 0 1-.367.135.4.4 0 0 0 .254-.004.41.41 0 0 0-.01.375q.016.04.038.065-.072.03-.149.066c.237-.04.337-.035.568-.001.015.08.144.153.158.239l-.086.007h-.007c-.109-.095-.23-.079-.397-.037-.506.126-.387.437-.62.905.242-.323.224-.662.618-.764.091-.024.154-.053.216-.043a.52.52 0 0 0-.247.282c-.108.334-.04.616-.16.928.148-.279.156-.551.288-.845.047-.105.223-.274.33-.277l.089-.002c.026.186-.003.474-.013.627-.018.28-.13.584-.17.742.17.047.424-.139.594-.603s.138-.8.084-1.113c-.073-.43.105-.122.34-.325.171-.149.35-.388.507-.556.157-.167.288.208.35.37.267.709.23 1.282.159 1.995-.08.801-.362 1.508-1.007 1.902-.822.503-1.724.209-2.54-.093-.175-.064-.44-.172-.594-.278.042.206.006.624 0 .835-.01.371.037.536.14.64.104.102.162.102.274.102.169 0 .423-.093.508-.278s.085-.232.085-.325c.062.021.188.075.254.093 0 0-.058.114-.096.247-.096.344-.413.634-.751.634-.34 0-.552-.235-.763-.441l-.425-.413c-.381-.131-.491-.39-.845-.677-.085.557 0 .743.339 1.021-.052.57-.18.835-.34 1.206-.101.238-.609 1.11-.762 1.206-.109.069-.633.66-.762.742-.096.14-.195.38-.339.464-.438.254-.567.056-.762-.371-.085-.186-.17-.371 0-.464s.349-.371.423-.464.043-.51.085-.742m2.975-5.637a.6.6 0 0 0 .252.286q-.116.166-.186.373a3.26 3.26 0 0 1 1.554-1.096 1.5 1.5 0 0 0-.527.096.7.7 0 0 0-.052-.2.6.6 0 0 0-.323-.32A1.7 1.7 0 0 0 10.558 4c-.28.14-.604.106-.843.283-.21.155-.501.647-.715.856.155-.066.304-.18.442-.3q0 .136.056.265"/></svg>
